!!!OTL: Die zehen Gebote Gottes
!!!ARE: Europa, Mitteleuropa, Deutschland
!!!SCT: A0620B
!!!YEM: Copyright 1995, estate of Helmut Schaffrath.
**kern
*ICvox
*Ivox
*M4/1
*k[f#]
*G:
{2g
=1
1g
1g
2g
2g
1g
=2
2g
2a
1b
1cc
2r}
{2cc
=3
1dd
1dd
1cc
1g
=4
1a
1b
1cc
2r}
{2cc
=5
1dd
1dd
1cc
1g
=6
1a
1g
1f#
2r}
{2f#
=7
1a
1b-
0cc
=8
1b-
1g
1.b-
2a
=9
0g
1.g}
==
!!!AGN: Romanze, Ballade, Lied, religioeses Lied
!! Babst 1545 II No. 14.
!!!ONB: ESAC (Essen Associative Code) Database: ALTDEU
!!!AMT: simple quadruple
!!!AIN: vox
!!!EED: Helmut Schaffrath
!!!EEV: 1.0
*-
